X:8988
T:La Molinera
C:Tradicional
S:Música Tradicional Asturiana, (C) Tello & Tito. Asturies, 2001.
S:http://pagina.de/MusTradAst <telloytito@asturies.org>
A:Asturies
Z:Asturias, canciones
M:2/4
L:1/8
Q:1/4=100
K:C
E|AA AB|c c2 B|d2 cB|A2 z E|AA AB|c c2 B|d2 cB|A2 z c|
GG GG|G G2 A|F2 FG|E2 z E|A2 cB|A2 z E|A2 cB|G2 BA|F2 AG|E2 z2||


